X: 120
T:Skylark, The
M:C|
L:1/8
C:James Morrison
R:Reel
K:D
f[|:agfg efdB|AF~F2 DFA=c|BG~G2 EFGB|AF~F2 DFAd|!
agfg efdB|AF~F2 DFA=c|BG~G2 Efag|faeg fddf:|!
|:a2fd Adfd|cded cAAf|a2fa bged|Beed efge|!
~f3d ~g3e|f2ef dBAG|FGAF G2ag|faeg fddf|]!
